X: 41407
T: Twilight In Portroe
R: reel
M: 4/4
K: Dmajor
D2FA G2Bd|A2ce d2fd|edfd gdfd|egfe dBAF|
D2FA G2Bd|A2ce defg|a2af c'bag|1 fgef d2AF:|2 fgef d3A||
d2dA BAFA|B2ec dcBA|(3ABA eA fAeA|dfAd fABc|
d2dA BAFA|B2ec dcBA|(3ABA eA fdAG|FGEF D3A|
d2dA BAFA|B2ec dcBA|(3ABA eA fA eA|dfAd fgbc'|
d'2c'd' bc'ab|gafg efde|cd Bc ABGA|FGEF D4||

